!!!OTL-incipit: ICH WILL ZU LAND AUSREITEN
!!!ARE: Europa, Mitteleuropa, Deutschland
!!!SCT: Z0060
!!!TXL: @@DE
!!!YEM: Copyright 1995, estate of Helmut Schaffrath.
**kern	**text
*ICvox	*
*M4/4	*
*met(c)	*
*k[b-]	*
!LO:TX:a:t=Aus dem 15. Jahrhundert.	!
{4g	Jch
=1	=1
4b-	will
4b-	ʒu
4cc	Land
4cc	aus-
=2	=2
2dd	-rei-
2dd	-ten,
=3	=3
4r}	.
{2dd	ſprach
4dd	ſich
=4	=4
4dd	Mei-
4ee	-ſter
4ff	Hil-
4dd	-de-
=5	=5
2.dd}	-brandt,
{4dd	der
=6	=6
4dd	mir
4ee	die
4ff	Weg'
4dd	thut
=7	=7
2ee-	wei-
4dd}	-ſen
{4dd	gen
=8	=8
4cc	Bern
4b-	wol
4dd	in
4b-	die
=9	=9
2.b-}	Land.
{4b-	Sie
=10	=10
8b-	ſind
8b-	mir
4cc	un-
4cc	-kund
4cc	ge-
=11	=11
2dd	-wor-
4dd}	-den,
{4dd	viel
=12	=12
4cc	lie-
4b-	-ben
4b-	lan-
4b-	-gen
=13	=13
(16aqqL	.
16gqqJ	.
2.f)}	Tag;
{4dd	ei
=14	=14
(4.dd	ja
8cc)	.
4b-	ha,
4dd	in
=15	=15
4ee-	ʒwei
4dd	und
4dd	dreißig
4b-	.
=16	=16
2cc	Jah-
4dd}	-ren
{4cc	Frau
=17	=17
8b-L	Ut-
8b-J	-ten
4g	ich
4g	nie
4e	ge-
=18	=18
2.f	-ſach.
4g}	.
==	==
!!!AGN: Sagen - Lied, Romanze, Ballade
!!!ONB: ESAC (Essen Associative Code) Database: ZUCCAL
!!!AMT: simple quadruple
!!!AIN: vox
!!!EED: Helmut Schaffrath
!!!EEV: 1.0
!!!GTL: I. Ernste Romanzen und Sagen.
!!!URL-scan: https://digitale-sammlungen.de/de/view/bsb11160571?page=119
!!!ENC: Anna Maria Matuszewska
!!!EEV: 2025/01/24
*-	*-
